source/_posts/ft-in-fa/2d-general.svg

<?xml version="1.0" encoding="UTF-8"?><svg xmlns="http://www.w3.org/2000/svg" xmlns:xlink="http://www.w3.org/1999/xlink" width="227.97pt" height="227.97pt" viewBox="0 0 227.97 227.97" version="1.1"><defs><g><symbol overflow="visible" id="glyph0-0"><path style="stroke:none;" d=""/></symbol><symbol overflow="visible" id="glyph0-1"><path style="stroke:none;" d="M 5.734375 -3.3125 C 5.8125 -3.59375 5.9375 -4.078125 5.9375 -4.140625 C 5.9375 -4.359375 5.640625 -4.75 5.328125 -4.75 C 5.171875 -4.75 4.671875 -4.5 4.53125 -4.0625 C 4.5 -3.921875 4.046875 -2.109375 3.96875 -1.78125 C 3.90625 -1.5625 3.84375 -1.265625 3.828125 -1.171875 C 3.671875 -0.96875 3.390625 -0.609375 2.875 -0.609375 C 2.296875 -0.609375 2.40625 -0.9375 2.40625 -1.171875 C 2.40625 -1.78125 2.71875 -2.546875 3 -3.265625 C 3.09375 -3.53125 3.125 -3.59375 3.125 -3.765625 C 3.125 -4.34375 2.421875 -4.828125 1.875 -4.828125 C 0.8125 -4.828125 0.171875 -3.3125 0.171875 -3.109375 C 0.171875 -2.96875 0.46875 -2.8125 0.5625 -2.8125 C 0.671875 -2.8125 0.875 -2.96875 0.921875 -3.09375 C 1.25 -4.203125 1.65625 -4.140625 1.8125 -4.140625 C 1.890625 -4.140625 1.84375 -4.3125 1.84375 -4.09375 C 1.84375 -3.875 1.71875 -3.59375 1.6875 -3.46875 C 1.265625 -2.421875 1.078125 -1.859375 1.078125 -1.375 C 1.078125 -0.234375 2.21875 0.078125 2.796875 0.078125 C 3.09375 0.078125 3.625 -0.015625 4.03125 -0.40625 C 4.28125 -0.03125 4.96875 0.078125 5.203125 0.078125 C 5.578125 0.078125 5.953125 -0.171875 6.15625 -0.53125 C 6.40625 -0.9375 6.578125 -1.578125 6.578125 -1.640625 C 6.578125 -1.78125 6.296875 -1.9375 6.203125 -1.9375 C 6.09375 -1.9375 5.96875 -1.890625 5.90625 -1.84375 C 5.890625 -1.828125 5.859375 -1.6875 5.796875 -1.4375 C 5.59375 -0.65625 5.515625 -0.609375 5.25 -0.609375 C 5.109375 -0.609375 5.15625 -0.53125 5.15625 -0.8125 C 5.15625 -0.984375 5.1875 -1.140625 5.296875 -1.53125 C 5.359375 -1.8125 5.46875 -2.21875 5.515625 -2.4375 Z M 5.734375 -3.3125 "/></symbol><symbol overflow="visible" id="glyph0-2"><path style="stroke:none;" d="M 5.515625 -3.765625 C 5.515625 -4.671875 4.71875 -4.84375 4.71875 -4.84375 C 4.3125 -4.84375 3.8125 -4.25 3.8125 -3.921875 C 3.8125 -3.640625 4.0625 -3.40625 4.15625 -3.359375 C 4.578125 -3.109375 4.609375 -3.046875 4.609375 -2.84375 C 4.609375 -2.625 4.171875 -0.609375 3.015625 -0.609375 C 2.296875 -0.609375 2.421875 -1.03125 2.421875 -1.21875 C 2.421875 -1.796875 2.703125 -2.515625 3.015625 -3.3125 C 3.09375 -3.515625 3.125 -3.609375 3.125 -3.765625 C 3.125 -4.34375 2.421875 -4.828125 1.875 -4.828125 C 0.8125 -4.828125 0.171875 -3.3125 0.171875 -3.109375 C 0.171875 -2.96875 0.46875 -2.8125 0.5625 -2.8125 C 0.671875 -2.8125 0.875 -2.96875 0.921875 -3.09375 C 1.234375 -4.171875 1.640625 -4.140625 1.8125 -4.140625 C 1.890625 -4.140625 1.84375 -4.3125 1.84375 -4.09375 C 1.84375 -3.875 1.71875 -3.578125 1.6875 -3.5 C 1.234375 -2.34375 1.09375 -1.890625 1.09375 -1.421875 C 1.09375 -0.359375 2.078125 0.078125 2.953125 0.078125 C 4.671875 0.078125 5.515625 -2.90625 5.515625 -3.765625 Z M 5.515625 -3.765625 "/></symbol><symbol overflow="visible" id="glyph0-3"><path style="stroke:none;" d="M 2.21875 -2.171875 C 2.875 -2.171875 3.53125 -2.234375 3.953125 -2.375 C 4.796875 -2.65625 5.0625 -3.390625 5.0625 -3.703125 C 5.0625 -4.28125 4.390625 -4.828125 3.5625 -4.828125 C 1.765625 -4.828125 0.34375 -3.421875 0.34375 -1.875 C 0.34375 -0.734375 1.25 0.078125 2.578125 0.078125 C 2.828125 0.078125 3.515625 0.0625 4.109375 -0.15625 C 4.6875 -0.390625 5.21875 -0.953125 5.21875 -1.078125 C 5.21875 -1.15625 4.9375 -1.5 4.84375 -1.5 C 4.78125 -1.5 4.671875 -1.421875 4.59375 -1.34375 C 4.0625 -0.78125 3.375 -0.609375 2.609375 -0.609375 C 1.890625 -0.609375 1.75 -0.84375 1.75 -1.40625 C 1.75 -1.59375 1.796875 -1.921875 1.859375 -2.171875 Z M 2 -2.6875 C 2.171875 -3.421875 2.375 -3.578125 2.546875 -3.734375 C 2.890625 -4.09375 3.265625 -4.140625 3.5625 -4.140625 C 3.921875 -4.140625 4.203125 -4.140625 4.203125 -3.703125 C 4.203125 -2.6875 2.828125 -2.859375 2.03125 -2.859375 Z M 2 -2.6875 "/></symbol><symbol overflow="visible" id="glyph1-0"><path style="stroke:none;" d=""/></symbol><symbol overflow="visible" id="glyph1-1"><path style="stroke:none;" d="M 4.921875 -2.515625 C 4.921875 -4.078125 3.828125 -4.734375 3.09375 -4.734375 C 1.71875 -4.734375 0.234375 -3.140625 0.234375 -1.734375 C 0.234375 -0.8125 1 0.109375 2.03125 0.109375 C 2.65625 0.109375 3.484375 -0.171875 4.015625 -0.59375 C 4.078125 -0.359375 4.578125 0.109375 5.03125 0.109375 C 5.5625 0.109375 6.046875 -0.59375 6.046875 -0.75 C 6.046875 -0.828125 5.8125 -1.03125 5.75 -1.03125 C 5.6875 -1.03125 5.46875 -0.828125 5.4375 -0.75 C 5.265625 -0.265625 5.078125 -0.4375 5.0625 -0.4375 C 4.75 -0.4375 4.921875 -1.046875 4.921875 -1.28125 C 4.921875 -1.5 4.875 -1.40625 4.96875 -1.53125 C 5.90625 -2.703125 6.171875 -3.96875 6.171875 -3.984375 C 6.171875 -4 5.984375 -4.25 5.875 -4.25 C 5.78125 -4.25 5.609375 -4.046875 5.546875 -3.875 C 5.375 -3.234375 5.09375 -2.609375 4.625 -2.015625 L 4.921875 -1.890625 Z M 3.953125 -1.265625 C 3.078125 -0.5 2.4375 -0.4375 2.046875 -0.4375 C 1.453125 -0.4375 1.3125 -0.71875 1.3125 -1.359375 C 1.3125 -1.84375 1.53125 -2.8125 1.84375 -3.3125 C 2.3125 -4.046875 2.734375 -4.1875 3.078125 -4.1875 C 4.0625 -4.1875 3.890625 -3.046875 3.890625 -2.265625 C 3.890625 -1.890625 3.890625 -1.3125 3.890625 -1.21875 Z M 3.953125 -1.265625 "/></symbol><symbol overflow="visible" id="glyph2-0"><path style="stroke:none;" d=""/></symbol><symbol overflow="visible" id="glyph2-1"><path style="stroke:none;" d="M 2.515625 -4.625 C 2.515625 -4.8125 2.328125 -5.015625 2.046875 -5.015625 C 1.546875 -4.515625 1.046875 -4.578125 0.5625 -4.578125 L 0.5625 -3.9375 C 0.921875 -3.9375 1.515625 -3.984375 1.578125 -4.015625 L 1.578125 -0.765625 C 1.578125 -0.53125 1.765625 -0.640625 1.078125 -0.640625 L 0.609375 -0.640625 L 0.609375 0.015625 C 0.9375 0 1.796875 -0.03125 2.046875 -0.03125 C 2.265625 -0.03125 3.140625 0 3.484375 0.015625 L 3.484375 -0.640625 L 3.03125 -0.640625 C 2.328125 -0.640625 2.515625 -0.53125 2.515625 -0.765625 Z M 2.515625 -4.625 "/></symbol><symbol overflow="visible" id="glyph2-2"><path style="stroke:none;" d="M 3.515625 -1.65625 L 3.109375 -1.65625 C 3.0625 -1.3125 3.046875 -1.03125 2.96875 -0.96875 C 2.90625 -0.921875 2.515625 -0.984375 2.40625 -0.984375 L 1.125 -0.984375 L 1.265625 -0.640625 C 2 -1.296875 2.234375 -1.484375 2.65625 -1.8125 C 3.171875 -2.234375 3.703125 -2.796875 3.703125 -3.46875 C 3.703125 -4.3125 2.78125 -5.015625 1.890625 -5.015625 C 1.03125 -5.015625 0.25 -4.21875 0.25 -3.578125 C 0.25 -3.21875 0.734375 -2.984375 0.8125 -2.984375 C 0.96875 -2.984375 1.359375 -3.296875 1.359375 -3.546875 C 1.359375 -3.671875 1.125 -4.125 1.03125 -4.125 C 1.171875 -4.421875 1.453125 -4.375 1.78125 -4.375 C 2.484375 -4.375 2.640625 -4.03125 2.640625 -3.46875 C 2.640625 -2.859375 2.265625 -2.515625 2.046875 -2.265625 L 0.375 -0.59375 C 0.296875 -0.53125 0.25 -0.390625 0.25 0 L 3.46875 0 L 3.75 -1.65625 Z M 3.515625 -1.65625 "/></symbol></g><clipPath id="clip1">  <path d="M 0 170 L 227.96875 170 L 227.96875 172 L 0 172 Z M 0 170 "/></clipPath><clipPath id="clip2">  <path d="M 224 167 L 227.96875 167 L 227.96875 174 L 224 174 Z M 224 167 "/></clipPath><clipPath id="clip3">  <path d="M 34 0 L 92 0 L 92 227.96875 L 34 227.96875 Z M 34 0 "/></clipPath></defs><g id="surface1"><path style="fill:none;stroke-width:1.59404;stroke-linecap:butt;stroke-linejoin:miter;stroke:rgb(0%,0%,54.499817%);stroke-opacity:1;stroke-miterlimit:10;" d="M -0.0019375 -0.0006875 L 106.775406 26.694625 " transform="matrix(1,0,0,-1,57.291,170.679)"/><path style=" stroke:none;fill-rule:nonzero;fill:rgb(0%,0%,54.499817%);fill-opacity:1;" d="M 170.679688 142.332031 C 168.628906 142.453125 165.167969 142.148438 162.644531 141.414063 L 164.019531 146.921875 C 165.902344 145.085938 168.8125 143.1875 170.679688 142.332031 "/><g style="fill:rgb(0%,0%,0%);fill-opacity:1;">  <use xlink:href="#glyph0-1" x="177.785" y="144.546"/></g><path style="fill:none;stroke-width:1.59404;stroke-linecap:butt;stroke-linejoin:miter;stroke:rgb(0%,0%,54.499817%);stroke-opacity:1;stroke-miterlimit:10;" d="M -0.0019375 -0.0006875 L 54.048844 128.3665 " transform="matrix(1,0,0,-1,57.291,170.679)"/><path style=" stroke:none;fill-rule:nonzero;fill:rgb(0%,0%,54.499817%);fill-opacity:1;" d="M 113.984375 36.03125 C 112.851563 37.746094 110.53125 40.328125 108.429688 41.90625 L 113.664063 44.113281 C 113.324219 41.503906 113.550781 38.039063 113.984375 36.03125 "/><g style="fill:rgb(0%,0%,0%);fill-opacity:1;">  <use xlink:href="#glyph0-2" x="110.977" y="28.925"/></g><path style="fill:none;stroke-width:0.3985;stroke-linecap:butt;stroke-linejoin:miter;stroke:rgb(0%,0%,0%);stroke-opacity:1;stroke-miterlimit:10;" d="M 11.337906 2.83525 C 10.36525 6.729781 7.611344 9.940719 3.912125 11.495406 " transform="matrix(1,0,0,-1,57.291,170.679)"/><g style="fill:rgb(0%,0%,0%);fill-opacity:1;">  <use xlink:href="#glyph1-1" x="67.713" y="161.326"/></g><g clip-path="url(#clip1)" clip-rule="nonzero"><path style="fill:none;stroke-width:1.19553;stroke-linecap:butt;stroke-linejoin:miter;stroke:rgb(0%,0%,0%);stroke-opacity:1;stroke-miterlimit:10;" d="M -56.693344 -0.0006875 L 169.123063 -0.0006875 " transform="matrix(1,0,0,-1,57.291,170.679)"/></g><g clip-path="url(#clip2)" clip-rule="nonzero"><path style="fill:none;stroke-width:0.9564;stroke-linecap:round;stroke-linejoin:round;stroke:rgb(0%,0%,0%);stroke-opacity:1;stroke-miterlimit:10;" d="M -1.911534 2.550094 C -1.755284 1.593062 -0.0013775 0.159469 0.479091 -0.0006875 C -0.0013775 -0.160844 -1.755284 -1.594438 -1.911534 -2.551469 " transform="matrix(1,0,0,-1,226.41544,170.679)"/></g><g clip-path="url(#clip3)" clip-rule="nonzero"><path style="fill:none;stroke-width:1.19553;stroke-linecap:butt;stroke-linejoin:miter;stroke:rgb(0%,0%,0%);stroke-opacity:1;stroke-miterlimit:10;" d="M -5.669906 -56.692094 L 16.912125 169.128219 " transform="matrix(1,0,0,-1,57.291,170.679)"/></g><path style="fill:none;stroke-width:0.9564;stroke-linecap:round;stroke-linejoin:round;stroke:rgb(0%,0%,0%);stroke-opacity:1;stroke-miterlimit:10;" d="M -1.912848 2.550874 C -1.754262 1.593093 -0.00119559 0.158743 0.478081 -0.001409 C -0.000809409 -0.159221 -1.75351 -1.59471 -1.913277 -2.548989 " transform="matrix(0.09949,-0.99498,-0.99498,-0.09949,74.20494,1.54976)"/><path style="fill:none;stroke-width:1.19553;stroke-linecap:butt;stroke-linejoin:miter;stroke:rgb(0%,0%,0%);stroke-opacity:1;stroke-miterlimit:10;" d="M -0.0019375 -0.0006875 L 22.607438 -0.0006875 " transform="matrix(1,0,0,-1,57.291,170.679)"/><path style=" stroke:none;fill-rule:nonzero;fill:rgb(0%,0%,0%);fill-opacity:1;" d="M 85.636719 170.679688 C 83.9375 170.359375 81.175781 169.402344 79.261719 168.289063 L 79.261719 173.070313 C 81.175781 171.953125 83.9375 170.996094 85.636719 170.679688 "/><g style="fill:rgb(0%,0%,0%);fill-opacity:1;">  <use xlink:href="#glyph0-3" x="80.645" y="182.014"/></g><g style="fill:rgb(0%,0%,0%);fill-opacity:1;">  <use xlink:href="#glyph2-1" x="86.16" y="183.509"/></g><path style="fill:none;stroke-width:1.19553;stroke-linecap:butt;stroke-linejoin:miter;stroke:rgb(0%,0%,0%);stroke-opacity:1;stroke-miterlimit:10;" d="M -0.0019375 -0.0006875 L 2.263688 22.636031 " transform="matrix(1,0,0,-1,57.291,170.679)"/><path style=" stroke:none;fill-rule:nonzero;fill:rgb(0%,0%,0%);fill-opacity:1;" d="M 60.125 142.332031 C 59.640625 143.992188 58.414063 146.644531 57.113281 148.4375 L 61.871094 148.914063 C 60.949219 146.898438 60.273438 144.054688 60.125 142.332031 "/><g style="fill:rgb(0%,0%,0%);fill-opacity:1;">  <use xlink:href="#glyph0-3" x="43.234" y="143.799"/></g><g style="fill:rgb(0%,0%,0%);fill-opacity:1;">  <use xlink:href="#glyph2-2" x="48.749" y="145.294"/></g></g></svg>

<svg xmlns="http://www.w3.org/2000/svg" xmlns:xlink="http://www.w3.org/1999/xlink" width="303.96" height="303.96" viewBox="0 0 227.97 227.97"><defs><symbol id="a" overflow="visible"><path d="M5.734-3.312c.079-.282.204-.766.204-.829 0-.218-.297-.609-.61-.609-.156 0-.656.25-.797.688-.031.14-.484 1.953-.562 2.28a7 7 0 0 0-.14.61c-.157.203-.438.563-.954.563-.578 0-.469-.328-.469-.563 0-.61.313-1.375.594-2.094.094-.265.125-.328.125-.5 0-.578-.703-1.062-1.25-1.062C.813-4.828.172-3.312.172-3.11c0 .14.297.297.39.297.11 0 .313-.157.36-.282.328-1.11.734-1.047.89-1.047.079 0 .032-.171.032.047s-.125.5-.157.625c-.421 1.047-.609 1.61-.609 2.094 0 1.14 1.14 1.453 1.719 1.453.297 0 .828-.094 1.234-.484.25.375.938.484 1.172.484.375 0 .75-.25.953-.61.25-.405.422-1.046.422-1.109 0-.14-.281-.296-.375-.296a.56.56 0 0 0-.297.093c-.015.016-.047.157-.11.407-.202.78-.28.828-.546.828-.14 0-.094.078-.094-.203 0-.172.032-.329.14-.72.063-.28.173-.687.22-.905Zm0 0" style="stroke:none"/></symbol><symbol id="b" overflow="visible"><path d="M5.516-3.766c0-.906-.797-1.078-.797-1.078-.407 0-.907.594-.907.922 0 .281.25.516.344.563.422.25.453.312.453.515 0 .219-.437 2.235-1.593 2.235-.72 0-.594-.422-.594-.61 0-.578.281-1.297.594-2.093.078-.204.109-.297.109-.454 0-.578-.703-1.062-1.25-1.062C.813-4.828.172-3.312.172-3.11c0 .14.297.297.39.297.11 0 .313-.157.36-.282.312-1.078.719-1.047.89-1.047.079 0 .032-.171.032.047s-.125.516-.157.594c-.453 1.156-.593 1.61-.593 2.078 0 1.063.984 1.5 1.86 1.5 1.718 0 2.562-2.984 2.562-3.844m0 0" style="stroke:none"/></symbol><symbol id="g" overflow="visible"><path d="M2.219-2.172c.656 0 1.312-.062 1.734-.203.844-.281 1.11-1.016 1.11-1.328 0-.578-.672-1.125-1.5-1.125-1.797 0-3.22 1.406-3.22 2.953 0 1.14.907 1.953 2.235 1.953.25 0 .938-.015 1.531-.234.579-.235 1.11-.797 1.11-.922 0-.078-.282-.422-.375-.422-.063 0-.172.078-.25.156-.532.563-1.219.735-1.985.735-.718 0-.859-.235-.859-.797 0-.188.047-.516.11-.766ZM2-2.687c.172-.735.375-.891.547-1.047.344-.36.719-.407 1.015-.407.36 0 .641 0 .641.438 0 1.015-1.375.844-2.172.844Zm0 0" style="stroke:none"/></symbol><symbol id="c" overflow="visible"><path d="M4.922-2.516c0-1.562-1.094-2.218-1.828-2.218-1.375 0-2.86 1.593-2.86 3C.234-.812 1 .109 2.031.109c.625 0 1.453-.28 1.985-.703.062.235.562.703 1.015.703.532 0 1.016-.703 1.016-.859 0-.078-.234-.281-.297-.281s-.281.203-.312.281c-.172.484-.36.313-.375.313-.313 0-.141-.61-.141-.844 0-.219-.047-.125.047-.25.937-1.172 1.203-2.438 1.203-2.453 0-.016-.188-.266-.297-.266-.094 0-.266.203-.328.375a5.1 5.1 0 0 1-.922 1.86l.297.124Zm-.969 1.25c-.875.766-1.515.829-1.906.829-.594 0-.735-.282-.735-.922 0-.485.22-1.453.532-1.953.468-.735.89-.876 1.234-.876.985 0 .813 1.141.813 1.922v1.047Zm0 0" style="stroke:none"/></symbol><symbol id="h" overflow="visible"><path d="M2.516-4.625c0-.187-.188-.39-.47-.39-.5.5-1 .437-1.483.437v.64c.359 0 .953-.046 1.015-.078v3.25c0 .235.188.125-.5.125H.61v.657a53 53 0 0 1 1.438-.047c.219 0 1.094.031 1.437.047v-.657h-.453c-.703 0-.515.11-.515-.125Zm0 0" style="stroke:none"/></symbol><symbol id="i" overflow="visible"><path d="M3.516-1.656h-.407c-.046.343-.062.625-.14.687-.063.047-.453-.015-.563-.015H1.125l.14.343c.735-.656.97-.843 1.391-1.171.516-.422 1.047-.985 1.047-1.657 0-.844-.922-1.547-1.812-1.547-.86 0-1.641.797-1.641 1.438 0 .36.484.594.563.594.156 0 .546-.313.546-.563 0-.125-.234-.578-.328-.578.14-.297.422-.25.75-.25.703 0 .86.344.86.906 0 .61-.375.953-.594 1.203L.375-.594C.297-.53.25-.39.25 0h3.219l.281-1.656Zm0 0" style="stroke:none"/></symbol><clipPath id="d"><path d="M0 170h227.969v2H0Zm0 0"/></clipPath><clipPath id="e"><path d="M224 167h3.969v7H224Zm0 0"/></clipPath><clipPath id="f"><path d="M34 0h58v227.969H34Zm0 0"/></clipPath></defs><path d="m-.002 0 106.777 26.695" style="fill:none;stroke-width:1.59404;stroke-linecap:butt;stroke-linejoin:miter;stroke:#00008b;stroke-opacity:1;stroke-miterlimit:10" transform="matrix(1 0 0 -1 57.291 170.679)"/><path d="M170.68 142.332c-2.051.121-5.512-.184-8.035-.918l1.375 5.508c1.882-1.836 4.792-3.734 6.66-4.59" style="stroke:none;fill-rule:nonzero;fill:#00008b;fill-opacity:1"/><use xlink:href="#a" x="177.785" y="144.546" style="fill:#000;fill-opacity:1"/><path d="m-.002 0 54.05 128.367" style="fill:none;stroke-width:1.59404;stroke-linecap:butt;stroke-linejoin:miter;stroke:#00008b;stroke-opacity:1;stroke-miterlimit:10" transform="matrix(1 0 0 -1 57.291 170.679)"/><path d="M113.984 36.031c-1.132 1.715-3.453 4.297-5.554 5.875l5.234 2.207c-.34-2.61-.113-6.074.32-8.082" style="stroke:none;fill-rule:nonzero;fill:#00008b;fill-opacity:1"/><use xlink:href="#b" x="110.977" y="28.925" style="fill:#000;fill-opacity:1"/><path d="M11.338 2.835a12.75 12.75 0 0 1-7.426 8.66" style="fill:none;stroke-width:.3985;stroke-linecap:butt;stroke-linejoin:miter;stroke:#000;stroke-opacity:1;stroke-miterlimit:10" transform="matrix(1 0 0 -1 57.291 170.679)"/><use xlink:href="#c" x="67.713" y="161.326" style="fill:#000;fill-opacity:1"/><g clip-path="url(#d)"><path d="M-56.693 0h225.816" style="fill:none;stroke-width:1.19553;stroke-linecap:butt;stroke-linejoin:miter;stroke:#000;stroke-opacity:1;stroke-miterlimit:10" transform="matrix(1 0 0 -1 57.291 170.679)"/></g><g clip-path="url(#e)"><path d="M-1.912 2.55C-1.755 1.593-.002.16.48 0 0-.16-1.755-1.595-1.91-2.552" style="fill:none;stroke-width:.9564;stroke-linecap:round;stroke-linejoin:round;stroke:#000;stroke-opacity:1;stroke-miterlimit:10" transform="matrix(1 0 0 -1 226.415 170.679)"/></g><g clip-path="url(#f)"><path d="m-5.67-56.692 22.582 225.82" style="fill:none;stroke-width:1.19553;stroke-linecap:butt;stroke-linejoin:miter;stroke:#000;stroke-opacity:1;stroke-miterlimit:10" transform="matrix(1 0 0 -1 57.291 170.679)"/></g><path d="M-1.913 2.55C-1.754 1.594 0 .16.478 0 0-.16-1.754-1.595-1.913-2.55" style="fill:none;stroke-width:.9564;stroke-linecap:round;stroke-linejoin:round;stroke:#000;stroke-opacity:1;stroke-miterlimit:10" transform="scale(.99994 -.99994)rotate(84.29 37.96 40.225)"/><path d="M-.002 0h22.61" style="fill:none;stroke-width:1.19553;stroke-linecap:butt;stroke-linejoin:miter;stroke:#000;stroke-opacity:1;stroke-miterlimit:10" transform="matrix(1 0 0 -1 57.291 170.679)"/><path d="M85.637 170.68c-1.7-.32-4.461-1.278-6.375-2.39v4.78c1.914-1.117 4.676-2.074 6.375-2.39" style="stroke:none;fill-rule:nonzero;fill:#000;fill-opacity:1"/><use xlink:href="#g" x="80.645" y="182.014" style="fill:#000;fill-opacity:1"/><use xlink:href="#h" x="86.16" y="183.509" style="fill:#000;fill-opacity:1"/><path d="m-.002 0 2.266 22.636" style="fill:none;stroke-width:1.19553;stroke-linecap:butt;stroke-linejoin:miter;stroke:#000;stroke-opacity:1;stroke-miterlimit:10" transform="matrix(1 0 0 -1 57.291 170.679)"/><path d="M60.125 142.332c-.484 1.66-1.71 4.313-3.012 6.106l4.758.476c-.922-2.016-1.598-4.86-1.746-6.582" style="stroke:none;fill-rule:nonzero;fill:#000;fill-opacity:1"/><use xlink:href="#g" x="43.234" y="143.799" style="fill:#000;fill-opacity:1"/><use xlink:href="#i" x="48.749" y="145.294" style="fill:#000;fill-opacity:1"/></svg>
